X: 13697
T: For Pete's Sake
R: reel
M: 4/4
K: Edorian
|:B,EED EFGE|FAAB AFED|B,EED EFGB|AddB AGFG|
E~B,3 EFGE|FABc ~d3f|egfd edBe|1 dBAF FEED:|2 dBAF FEF/G/A||
|:Be e/e/e Beba|gBeg fecd|Beed efgb|~a3b agfd|
Be e/e/e Beba|gBeg fedf|ge g/a/b afdf|1 gefd efed:|2 edBG AGFD||

